X:1
T:O Sacred Head Now Wounded
T:O Sacred Head Now Wounded
T:J S Bach
C:J S Bach
%%score 1 2 3
L:1/8
M:4/4
K:F
V:1 treble nm="Flute" snm="Fl."
V:2 treble transpose=-2 nm="B♭ Clarinet" snm="B♭ Cl."
V:3 treble transpose=-2 nm="B♭ Clarinet" snm="B♭ Cl."
V:1
!f! A2 | d2 c2 B2 A2 |[M:5/4] G4 !fermata!A4 e2 |[M:4/4] f2 f2 ed e2 | d6 A2 | d2 c2 B2 A2 | %6
[M:5/4] G4 !fermata!A4 e2 |[M:4/4] f2 f2 ed e2 | d6 f2 | ed c2 d2 e2 |[M:5/4] f4 !fermata!f4 c2 | %11
[M:4/4] d2 c2 BA B2 | A6 =f2 | ef g2 f2 e2 |[M:5/4]!>(! d4 !fermata!e4!pp! A2!>)! | %15
[M:4/4] B2 A2 G2 c2 | !fermata!A6 z2 |] %17
V:2
[K:G]!f! G2 | GA B2 EF C2 |[M:5/4] G2 F2 !fermata!D4 B2 |[M:4/4] f2 e2 B2 ^d2 | G6 G2 | %5
 GA B2 EF C2 |[M:5/4] G2 D2 !fermata!D4 B2 |[M:4/4] f2 e2 B2 BA | G6 ed | c2 AG G2 cd | %10
[M:5/4] c2 BA !fermata!B4 G=F |[M:4/4] BA B2 A^G A2 | ^G6 A2 | de f2 d2 d2 | %14
[M:5/4]!>(! d2 ^c2 !fermata!A4!pp! GF!>)! |[M:4/4] EF G2 Fc/B/ AD | !fermata!D6 z2 |] %17
V:3
[K:G]!f! ed | c2 B2 A2 G2 |[M:5/4] C2 D2 !fermata!G4 ^D2 |[M:4/4] EFGA B2 B,2 | E6 ed | %5
 c2 B2 A2 G2 |[M:5/4] C2 D2 !fermata!G4 ^D2 |[M:4/4] EFGA B2 B,2 | E6 E2 | A2 B2 cB A2 | %10
[M:5/4] E2 DC !fermata!D4 G2 |[M:4/4] c2 ^G2 A2 A,2 | E6 ^C2 | D2 d^c B2 A2 | %14
[M:5/4]!>(! G2 A2 !fermata!D4!pp! G,2!>)! |[M:4/4] A,2 B,C D2 D2 | !fermata!G,6 z2 |] %17

